X: 34845
T: Roaring Mary
R: reel
M: 4/4
K: Dmajor
DF~F2 AFAB|df~f2 g2fe|d2dB ABde|fede fe~e2|
DF~F2 AFAB|df~f2 g2fe|d2dB ABdf|afeg fdd2:|
abag ~f3e|d2dA BG~G2|dg~g2 bg~g2|af~f2 ge~e2|
DF~F2 AFAB|df~f2 g2fe|d2dB ABdf|afeg fdd2:|
DF~F2 AFAB|df~f2 g2fe|dcdA BAFA|d2fd edBA|

